symbols/web/settings_accessibility/materialsymbolsoutlined/settings_accessibility_wght700_40px.svg

<svg xmlns="http://www.w3.org/2000/svg" height="40" width="40"><path d="M20 7.333q-1.5 0-2.583-1.083-1.084-1.083-1.084-2.583 0-1.5 1.063-2.584Q18.458 0 20 0q1.5 0 2.583 1.083 1.084 1.084 1.084 2.584T22.604 6.25Q21.542 7.333 20 7.333Zm-5.167 24.959V13.25q-2.583-.208-5.104-.583t-4.937-1l1-3.75q3.416.875 7.041 1.271 3.625.395 7.167.395t7.188-.395q3.645-.396 7.104-1.271l.958 3.75q-2.458.625-4.979 1t-5.063.583v19.042h-3.833v-9.417h-2.75v9.417ZM12.75 40q-.875 0-1.479-.604-.604-.604-.604-1.438 0-.833.625-1.437.625-.604 1.458-.604t1.417.604q.583.604.583 1.437 0 .875-.583 1.459-.584.583-1.417.583Zm7.292 0q-.875 0-1.438-.604-.562-.604-.562-1.438 0-.833.583-1.437.583-.604 1.417-.604.833 0 1.416.604.584.604.584 1.437 0 .875-.584 1.459-.583.583-1.416.583Zm7.375 0q-.875 0-1.459-.604-.583-.604-.583-1.438 0-.833.604-1.437.604-.604 1.438-.604.833 0 1.416.604.584.604.584 1.437 0 .875-.584 1.459-.583.583-1.416.583Z"/></svg>

<svg xmlns="http://www.w3.org/2000/svg" height="40" width="40"><path d="M20 7.333Q18.5 7.333 17.417 6.25Q16.333 5.167 16.333 3.667Q16.333 2.167 17.396 1.083Q18.458 0 20 0Q21.5 0 22.583 1.083Q23.667 2.167 23.667 3.667Q23.667 5.167 22.604 6.25Q21.542 7.333 20 7.333ZM14.833 32.292V13.25Q12.25 13.042 9.729 12.667Q7.208 12.292 4.792 11.667L5.792 7.917Q9.208 8.792 12.833 9.188Q16.458 9.583 20 9.583Q23.542 9.583 27.188 9.188Q30.833 8.792 34.292 7.917L35.25 11.667Q32.792 12.292 30.271 12.667Q27.75 13.042 25.208 13.25V32.292H21.375V22.875H18.625V32.292ZM12.75 40Q11.875 40 11.271 39.396Q10.667 38.792 10.667 37.958Q10.667 37.125 11.292 36.521Q11.917 35.917 12.75 35.917Q13.583 35.917 14.167 36.521Q14.75 37.125 14.75 37.958Q14.75 38.833 14.167 39.417Q13.583 40 12.75 40ZM20.042 40Q19.167 40 18.604 39.396Q18.042 38.792 18.042 37.958Q18.042 37.125 18.625 36.521Q19.208 35.917 20.042 35.917Q20.875 35.917 21.458 36.521Q22.042 37.125 22.042 37.958Q22.042 38.833 21.458 39.417Q20.875 40 20.042 40ZM27.417 40Q26.542 40 25.958 39.396Q25.375 38.792 25.375 37.958Q25.375 37.125 25.979 36.521Q26.583 35.917 27.417 35.917Q28.25 35.917 28.833 36.521Q29.417 37.125 29.417 37.958Q29.417 38.833 28.833 39.417Q28.25 40 27.417 40Z"/></svg>
